src/assets/images/header-logo.svg

<svg height="21" viewBox="0 0 158 21" width="158" xmlns="http://www.w3.org/2000/svg"><path d="m5.664 24h-3.816v-17.016h10.968v3.6h-7.176v3.6h6.312v3.456h-6.288zm22.704-13.392h-5.256v13.392h-3.792v-13.392h-5.232v-3.624h14.28zm18.504 7.296 2.76-10.92h3.888l-4.632 17.016h-3.912l-3.624-11.28-3.648 11.28h-3.984l-4.632-17.016h4.032l2.808 10.896 3.528-10.896h3.888zm19.096 9.096-3.888-6.96h-2.544v6.96h-2.376v-17.016h6.408c3.216 0 5.208 2.256 5.208 5.064 0 2.448-1.56 4.344-4.128 4.824l4.056 7.128zm-6.432-9.072h3.6c1.92 0 3.216-1.128 3.216-2.88 0-1.8-1.296-2.952-3.216-2.952h-3.6zm22.824 9.072h-10.344v-17.016h10.344v2.184h-7.992v5.232h7.248v2.208h-7.248v5.208h7.992zm15.408-14.832h-5.688v14.832h-2.352v-14.832h-5.688v-2.184h13.728zm12.2 11.832-3.888-6.96h-2.544v6.96h-2.376v-17.016h6.408c3.216 0 5.208 2.256 5.208 5.064 0 2.448-1.56 4.344-4.128 4.824l4.056 7.128zm-6.432-9.072h3.6c1.92 0 3.216-1.128 3.216-2.88 0-1.8-1.296-2.952-3.216-2.952h-3.6zm22.824 9.072h-10.344v-17.016h10.344v2.184h-7.992v5.232h7.248v2.208h-7.248v5.208h7.992zm15.384 0-1.848-4.752h-7.536l-1.8 4.752h-2.52l6.768-17.016h2.712l6.768 17.016zm-5.64-14.568-2.904 7.632h5.856zm22.392-.264h-5.688v14.832h-2.352v-14.832h-5.688v-2.184h13.728z" fill="#1a000e" fill-rule="evenodd" transform="translate(-1 -6.5)"/></svg>

<svg xmlns="http://www.w3.org/2000/svg" width="158" height="21" viewBox="0 0 158 21">
  <g fill="#1A000E" fill-rule="evenodd" transform="translate(-1 -6.5)">
    <path d="M5.664 24L1.848 24 1.848 6.984 12.816 6.984 12.816 10.584 5.64 10.584 5.64 14.184 11.952 14.184 11.952 17.64 5.664 17.64 5.664 24zM28.368 10.608L23.112 10.608 23.112 24 19.32 24 19.32 10.608 14.088 10.608 14.088 6.984 28.368 6.984 28.368 10.608zM46.872 17.904L49.632 6.984 53.52 6.984 48.888 24 44.976 24 41.352 12.72 37.704 24 33.72 24 29.088 6.984 33.12 6.984 35.928 17.88 39.456 6.984 43.344 6.984 46.872 17.904zM65.968 27L62.08 20.04 59.536 20.04 59.536 27 57.16 27 57.16 9.984 63.568 9.984C66.784 9.984 68.776 12.24 68.776 15.048 68.776 17.496 67.216 19.392 64.648 19.872L68.704 27 65.968 27zM59.536 17.928L63.136 17.928C65.056 17.928 66.352 16.8 66.352 15.048 66.352 13.248 65.056 12.096 63.136 12.096L59.536 12.096 59.536 17.928zM82.36 27L72.016 27 72.016 9.984 82.36 9.984 82.36 12.168 74.368 12.168 74.368 17.4 81.616 17.4 81.616 19.608 74.368 19.608 74.368 24.816 82.36 24.816 82.36 27zM97.768 12.168L92.08 12.168 92.08 27 89.728 27 89.728 12.168 84.04 12.168 84.04 9.984 97.768 9.984 97.768 12.168zM109.968 24L106.08 17.04 103.536 17.04 103.536 24 101.16 24 101.16 6.984 107.568 6.984C110.784 6.984 112.776 9.24 112.776 12.048 112.776 14.496 111.216 16.392 108.648 16.872L112.704 24 109.968 24zM103.536 14.928L107.136 14.928C109.056 14.928 110.352 13.8 110.352 12.048 110.352 10.248 109.056 9.096 107.136 9.096L103.536 9.096 103.536 14.928zM126.36 24L116.016 24 116.016 6.984 126.36 6.984 126.36 9.168 118.368 9.168 118.368 14.4 125.616 14.4 125.616 16.608 118.368 16.608 118.368 21.816 126.36 21.816 126.36 24zM141.744 24L139.896 19.248 132.36 19.248 130.56 24 128.04 24 134.808 6.984 137.52 6.984 144.288 24 141.744 24zM136.104 9.432L133.2 17.064 139.056 17.064 136.104 9.432zM158.496 9.168L152.808 9.168 152.808 24 150.456 24 150.456 9.168 144.768 9.168 144.768 6.984 158.496 6.984 158.496 9.168z"/>
  </g>
</svg>
